X:1
T:Title
%%score { 1 | 2 }
L:1/8
Q:1/4=100
M:4/4
K:A
V:1 treble nm="Grand Piano"
V:2 bass 
V:1
 [A,CA]2 [A,E]2 [A,DF]2 [B,DG]2 | [A,EA]3 B c4 | d2 c2 [FB]2 [EA]2 | [^DG]3 F B4 | %4
w: Geo.~C.~Stebbins * * *||||
 [Ge]2 [EB]2 [Ec]2 [Ed]2 | [^Ec]3 [CGB] [CFA]4 | [DFB]2 [B,F]2 [=CFG]2 [CFA]2 | %7
w: |||
 [CEA]3 [B,DG] [A,CA]4 |] %8
w: |
V:2
 A,,2 C,2 D,2 B,,2 | C,3 [E,G,E] [A,E]4 | [F,A,D]2 [E,A,E]2 [D,A,]2 [C,A,]2 | %3
 [B,,B,]3 [^D,A,] [E,G,E]4 | [E,B,]2 [D,G,]2 [C,A,]2 [B,,G,]2 | [C,G,]3 ^E, F,4 | %6
 D,2 D,2 ^D,2 D,2 | E,3 E, A,,4 |] %8

